svg/icons/illustrator.svg

<svg xmlns="http://www.w3.org/2000/svg" viewBox="384 144 512 512"><path d="M543.624 436.844h74.908l-37.453-145.25-37.455 145.25zm116.015 159.258l-27.406-94.396h-101.4l-27.406 94.396h-69.427l97.747-333.739v-36.541h93.18l111.447 370.28h-76.735zm184.534 0h-74.907v-281.667h74.907v281.667zm-37-315.468c-21.441 0-38.826-17.179-38.826-38.367 0-21.19 17.381-38.369 38.826-38.369s38.827 17.179 38.827 38.369c0 21.188-17.38 38.367-38.827 38.367z"/></svg>

<?xml version="1.0" encoding="utf-8"?>
<!-- Generator: Adobe Illustrator 16.0.4, SVG Export Plug-In . SVG Version: 6.00 Build 0)  -->
<!DOCTYPE svg PUBLIC "-//W3C//DTD SVG 1.1//EN" "http://www.w3.org/Graphics/SVG/1.1/DTD/svg11.dtd">
<svg version="1.1" id="Layer_1" xmlns="http://www.w3.org/2000/svg" xmlns:xlink="http://www.w3.org/1999/xlink" x="0px" y="0px"
	 width="512px" height="512px" viewBox="384 144 512 512" enable-background="new 384 144 512 512" xml:space="preserve">
<path d="M543.624,436.844h74.908l-37.453-145.25L543.624,436.844z M659.639,596.102l-27.406-94.396H530.833l-27.406,94.396H434
	l97.747-333.739v-36.541h93.18l111.447,370.28H659.639z M844.173,596.102h-74.907V314.435h74.907V596.102z M807.173,280.634
	c-21.441,0-38.826-17.179-38.826-38.367c0-21.19,17.381-38.369,38.826-38.369S846,221.077,846,242.267
	C846,263.455,828.62,280.634,807.173,280.634z"/>
</svg>
